images/svg/Shape.svg

<svg width="26" height="23" viewBox="0 0 26 23" fill="none" xmlns="http://www.w3.org/2000/svg">
<path fill-rule="evenodd" clip-rule="evenodd" d="M13.084 0.230569C12.8875 0.234334 12.7002 0.315057 12.5626 0.455404C12.4249 0.59575 12.3478 0.784498 12.3479 0.981084V15.247C12.3479 15.4461 12.4269 15.637 12.5677 15.7778C12.7084 15.9185 12.8993 15.9975 13.0983 15.9975C13.2974 15.9975 13.4883 15.9185 13.6291 15.7778C13.7698 15.637 13.8488 15.4461 13.8488 15.247V0.981084C13.849 0.881401 13.829 0.782702 13.7905 0.69077C13.752 0.598826 13.6955 0.515494 13.6244 0.445622C13.5533 0.375751 13.4689 0.320754 13.3764 0.283831C13.2837 0.246908 13.1847 0.228797 13.085 0.230569H13.084ZM24.4402 4.504C24.3421 4.50683 24.2457 4.52877 24.1561 4.5686L17.7152 7.44351C17.5835 7.50305 17.4717 7.59932 17.3932 7.72081C17.3149 7.84229 17.2732 7.98382 17.2732 8.12841C17.2732 8.273 17.3149 8.41453 17.3932 8.53601C17.4717 8.6575 17.5835 8.75377 17.7152 8.81331L24.1561 11.6974C24.2529 11.741 24.3576 11.7637 24.4637 11.7641C24.6353 11.7636 24.8016 11.7042 24.9347 11.596C25.0679 11.4878 25.16 11.3372 25.1955 11.1693C25.2312 11.0015 25.2082 10.8265 25.1304 10.6735C25.0527 10.5206 24.9248 10.3989 24.7682 10.3287L19.8612 8.12943L24.7682 5.93838C24.9494 5.85681 25.0909 5.70689 25.1621 5.52136C25.2332 5.33581 25.228 5.12969 25.1477 4.94795C25.0868 4.81235 24.9871 4.69783 24.8611 4.61883C24.7352 4.53982 24.5887 4.49986 24.4402 4.504ZM1.03621 9.73538C1.14077 9.68585 1.25538 9.66117 1.37106 9.66328V9.6643C1.53457 9.66748 1.69257 9.72401 1.82101 9.82524C1.94946 9.92647 2.04132 10.0669 2.08262 10.2251C2.86815 13.2343 4.62967 15.8977 7.09121 17.7984C9.55275 19.699 12.5752 20.7294 15.6851 20.7282C15.8842 20.7282 16.0752 20.8073 16.2159 20.9481C16.3567 21.0888 16.4357 21.2798 16.4357 21.4787C16.4357 21.6778 16.3567 21.8687 16.2159 22.0095C16.0752 22.1502 15.8842 22.2292 15.6851 22.2292C8.60245 22.2292 2.4107 17.4473 0.630797 10.6014C0.601853 10.4894 0.599201 10.3722 0.623048 10.259C0.646895 10.1458 0.696595 10.0396 0.768267 9.94876C0.839939 9.85793 0.93164 9.7849 1.03621 9.73538Z" fill="white"/>
</svg>

<svg xmlns="http://www.w3.org/2000/svg" width="26" height="23" fill="none"><path fill="#fff" fill-rule="evenodd" d="M13.084.23a.75.75 0 0 0-.736.751v14.266a.75.75 0 1 0 1.5 0V.981a.748.748 0 0 0-.763-.75h-.001ZM24.44 4.505a.752.752 0 0 0-.284.065l-6.44 2.875a.752.752 0 0 0 0 1.37l6.44 2.883a.75.75 0 0 0 .612-1.369L19.861 8.13l4.907-2.19a.753.753 0 0 0 .38-.991.752.752 0 0 0-.708-.444ZM1.036 9.735a.75.75 0 0 1 .335-.072v.001a.75.75 0 0 1 .712.561 14.052 14.052 0 0 0 13.602 10.503.75.75 0 1 1 0 1.501c-7.083 0-13.274-4.782-15.054-11.628a.75.75 0 0 1 .405-.866Z" clip-rule="evenodd"/></svg>
